X: 23
T:Duke of Perth's Reel, The
M:C
L:1/8
Q:120
R:March
K:G
B|"G"G/2A/2B/2c/2 dB gBdB|gBdB "D7"aAAd|
"G"G/2A/2B/2c/2 dB gBdB|"D7"cAd>c "G"BG G::!
f|"Em"g>age "Bm"a>baf|"Em"g>age be"Bm"ef|
"Em"g>age "Bm"a>baf|"C"ge"D7"d>c "G"BGG:|
